Images/Graphics/POPULAR CHOICE.svg

<svg width="469" height="82" viewBox="0 0 469 82" fill="none" xmlns="http://www.w3.org/2000/svg">
<rect x="2.99219" y="2.73499" width="463.181" height="76.735" rx="38.3675" stroke="#A3A6AA" stroke-width="4"/>
<path d="M40.4827 26.1116C43.2107 26.1116 45.572 26.5663 47.5667 27.4756C49.5907 28.385 51.1453 29.6756 52.2307 31.3476C53.316 33.0196 53.8587 34.9996 53.8587 37.2876C53.8587 39.5463 53.316 41.5263 52.2307 43.2276C51.1453 44.8996 49.5907 46.1903 47.5667 47.0996C45.572 47.9796 43.2107 48.4196 40.4827 48.4196H34.2787V56.9116H27.1507V26.1116H40.4827ZM40.0867 42.6116C42.228 42.6116 43.856 42.157 44.9707 41.2476C46.0853 40.309 46.6427 38.989 46.6427 37.2876C46.6427 35.557 46.0853 34.237 44.9707 33.3276C43.856 32.389 42.228 31.9196 40.0867 31.9196H34.2787V42.6116H40.0867ZM74.2932 57.4396C71.0959 57.4396 68.2066 56.7503 65.6252 55.3716C63.0732 53.993 61.0639 52.101 59.5972 49.6956C58.1599 47.261 57.4412 44.533 57.4412 41.5116C57.4412 38.4903 58.1599 35.777 59.5972 33.3716C61.0639 30.937 63.0732 29.0303 65.6252 27.6516C68.2066 26.273 71.0959 25.5836 74.2932 25.5836C77.4906 25.5836 80.3652 26.273 82.9172 27.6516C85.4692 29.0303 87.4786 30.937 88.9452 33.3716C90.4119 35.777 91.1452 38.4903 91.1452 41.5116C91.1452 44.533 90.4119 47.261 88.9452 49.6956C87.4786 52.101 85.4692 53.993 82.9172 55.3716C80.3652 56.7503 77.4906 57.4396 74.2932 57.4396ZM74.2932 51.3676C76.1119 51.3676 77.7546 50.957 79.2212 50.1356C80.6879 49.285 81.8319 48.1116 82.6532 46.6156C83.5039 45.1196 83.9292 43.4183 83.9292 41.5116C83.9292 39.605 83.5039 37.9036 82.6532 36.4076C81.8319 34.9116 80.6879 33.753 79.2212 32.9316C77.7546 32.081 76.1119 31.6556 74.2932 31.6556C72.4746 31.6556 70.8319 32.081 69.3652 32.9316C67.8986 33.753 66.7399 34.9116 65.8892 36.4076C65.0679 37.9036 64.6572 39.605 64.6572 41.5116C64.6572 43.4183 65.0679 45.1196 65.8892 46.6156C66.7399 48.1116 67.8986 49.285 69.3652 50.1356C70.8319 50.957 72.4746 51.3676 74.2932 51.3676ZM109.834 26.1116C112.562 26.1116 114.924 26.5663 116.918 27.4756C118.942 28.385 120.497 29.6756 121.582 31.3476C122.668 33.0196 123.21 34.9996 123.21 37.2876C123.21 39.5463 122.668 41.5263 121.582 43.2276C120.497 44.8996 118.942 46.1903 116.918 47.0996C114.924 47.9796 112.562 48.4196 109.834 48.4196H103.63V56.9116H96.5022V26.1116H109.834ZM109.438 42.6116C111.58 42.6116 113.208 42.157 114.322 41.2476C115.437 40.309 115.994 38.989 115.994 37.2876C115.994 35.557 115.437 34.237 114.322 33.3276C113.208 32.389 111.58 31.9196 109.438 31.9196H103.63V42.6116H109.438ZM141.854 57.4396C137.454 57.4396 134.022 56.2223 131.558 53.7876C129.124 51.353 127.906 47.877 127.906 43.3596V26.1116H135.034V43.0956C135.034 48.6103 137.322 51.3676 141.898 51.3676C144.128 51.3676 145.829 50.7076 147.002 49.3876C148.176 48.0383 148.762 45.941 148.762 43.0956V26.1116H155.802V43.3596C155.802 47.877 154.57 51.353 152.106 53.7876C149.672 56.2223 146.254 57.4396 141.854 57.4396ZM162.846 26.1116H169.974V51.1036H185.418V56.9116H162.846V26.1116ZM209.942 50.3116H195.642L192.914 56.9116H185.61L199.338 26.1116H206.378L220.15 56.9116H212.67L209.942 50.3116ZM207.698 44.8996L202.814 33.1076L197.93 44.8996H207.698ZM242.97 56.9116L237.03 48.3316H236.678H230.474V56.9116H223.346V26.1116H236.678C239.406 26.1116 241.767 26.5663 243.762 27.4756C245.786 28.385 247.341 29.6756 248.426 31.3476C249.511 33.0196 250.054 34.9996 250.054 37.2876C250.054 39.5756 249.497 41.5556 248.382 43.2276C247.297 44.8703 245.742 46.1316 243.718 47.0116L250.626 56.9116H242.97ZM242.838 37.2876C242.838 35.557 242.281 34.237 241.166 33.3276C240.051 32.389 238.423 31.9196 236.282 31.9196H230.474V42.6556H236.282C238.423 42.6556 240.051 42.1863 241.166 41.2476C242.281 40.309 242.838 38.989 242.838 37.2876ZM282.902 57.4396C279.764 57.4396 276.918 56.765 274.366 55.4156C271.844 54.037 269.849 52.145 268.382 49.7396C266.945 47.305 266.226 44.5623 266.226 41.5116C266.226 38.461 266.945 35.733 268.382 33.3276C269.849 30.893 271.844 29.001 274.366 27.6516C276.918 26.273 279.778 25.5836 282.946 25.5836C285.616 25.5836 288.021 26.053 290.162 26.9916C292.333 27.9303 294.152 29.2796 295.618 31.0396L291.042 35.2636C288.96 32.8583 286.378 31.6556 283.298 31.6556C281.392 31.6556 279.69 32.081 278.194 32.9316C276.698 33.753 275.525 34.9116 274.674 36.4076C273.853 37.9036 273.442 39.605 273.442 41.5116C273.442 43.4183 273.853 45.1196 274.674 46.6156C275.525 48.1116 276.698 49.285 278.194 50.1356C279.69 50.957 281.392 51.3676 283.298 51.3676C286.378 51.3676 288.96 50.1503 291.042 47.7156L295.618 51.9396C294.152 53.729 292.333 55.093 290.162 56.0316C287.992 56.9703 285.572 57.4396 282.902 57.4396ZM328.68 26.1116V56.9116H321.552V44.2836H307.56V56.9116H300.432V26.1116H307.56V38.2556H321.552V26.1116H328.68ZM350.883 57.4396C347.686 57.4396 344.796 56.7503 342.215 55.3716C339.663 53.993 337.654 52.101 336.187 49.6956C334.75 47.261 334.031 44.533 334.031 41.5116C334.031 38.4903 334.75 35.777 336.187 33.3716C337.654 30.937 339.663 29.0303 342.215 27.6516C344.796 26.273 347.686 25.5836 350.883 25.5836C354.08 25.5836 356.955 26.273 359.507 27.6516C362.059 29.0303 364.068 30.937 365.535 33.3716C367.002 35.777 367.735 38.4903 367.735 41.5116C367.735 44.533 367.002 47.261 365.535 49.6956C364.068 52.101 362.059 53.993 359.507 55.3716C356.955 56.7503 354.08 57.4396 350.883 57.4396ZM350.883 51.3676C352.702 51.3676 354.344 50.957 355.811 50.1356C357.278 49.285 358.422 48.1116 359.243 46.6156C360.094 45.1196 360.519 43.4183 360.519 41.5116C360.519 39.605 360.094 37.9036 359.243 36.4076C358.422 34.9116 357.278 33.753 355.811 32.9316C354.344 32.081 352.702 31.6556 350.883 31.6556C349.064 31.6556 347.422 32.081 345.955 32.9316C344.488 33.753 343.33 34.9116 342.479 36.4076C341.658 37.9036 341.247 39.605 341.247 41.5116C341.247 43.4183 341.658 45.1196 342.479 46.6156C343.33 48.1116 344.488 49.285 345.955 50.1356C347.422 50.957 349.064 51.3676 350.883 51.3676ZM373.092 26.1116H380.22V56.9116H373.092V26.1116ZM402.27 57.4396C399.131 57.4396 396.286 56.765 393.734 55.4156C391.211 54.037 389.216 52.145 387.75 49.7396C386.312 47.305 385.594 44.5623 385.594 41.5116C385.594 38.461 386.312 35.733 387.75 33.3276C389.216 30.893 391.211 29.001 393.734 27.6516C396.286 26.273 399.146 25.5836 402.314 25.5836C404.983 25.5836 407.388 26.053 409.53 26.9916C411.7 27.9303 413.519 29.2796 414.986 31.0396L410.41 35.2636C408.327 32.8583 405.746 31.6556 402.666 31.6556C400.759 31.6556 399.058 32.081 397.562 32.9316C396.066 33.753 394.892 34.9116 394.042 36.4076C393.22 37.9036 392.81 39.605 392.81 41.5116C392.81 43.4183 393.22 45.1196 394.042 46.6156C394.892 48.1116 396.066 49.285 397.562 50.1356C399.058 50.957 400.759 51.3676 402.666 51.3676C405.746 51.3676 408.327 50.1503 410.41 47.7156L414.986 51.9396C413.519 53.729 411.7 55.093 409.53 56.0316C407.359 56.9703 404.939 57.4396 402.27 57.4396ZM443.647 51.1916V56.9116H419.799V26.1116H443.075V31.8316H426.883V38.5196H441.183V44.0636H426.883V51.1916H443.647Z" fill="#BDBDBD"/>
</svg>

<svg width="469" height="82" fill="none" xmlns="http://www.w3.org/2000/svg"><rect x="2.992" y="2.735" width="463.181" height="76.735" rx="38.367" stroke="#A3A6AA" stroke-width="4"/><path d="M40.483 26.112c2.728 0 5.089.454 7.084 1.364 2.024.909 3.578 2.2 4.664 3.872 1.085 1.672 1.628 3.652 1.628 5.94 0 2.258-.543 4.238-1.628 5.94-1.086 1.672-2.64 2.962-4.664 3.872-1.995.88-4.356 1.32-7.084 1.32h-6.204v8.492H27.15v-30.8h13.332Zm-.396 16.5c2.141 0 3.769-.455 4.884-1.364 1.114-.939 1.672-2.259 1.672-3.96 0-1.731-.558-3.051-1.672-3.96-1.115-.939-2.743-1.408-4.884-1.408h-5.808v10.692h5.808ZM74.293 57.44c-3.197 0-6.086-.69-8.668-2.068-2.552-1.379-4.561-3.271-6.028-5.676-1.437-2.435-2.156-5.163-2.156-8.184 0-3.022.719-5.735 2.156-8.14 1.467-2.435 3.476-4.342 6.028-5.72 2.582-1.379 5.47-2.068 8.668-2.068 3.198 0 6.072.689 8.624 2.068 2.552 1.378 4.562 3.285 6.028 5.72 1.467 2.405 2.2 5.118 2.2 8.14 0 3.021-.733 5.749-2.2 8.184-1.466 2.405-3.476 4.297-6.028 5.676-2.552 1.378-5.426 2.068-8.624 2.068Zm0-6.072c1.819 0 3.462-.411 4.928-1.232a8.998 8.998 0 0 0 3.432-3.52c.85-1.496 1.276-3.198 1.276-5.104 0-1.907-.425-3.608-1.276-5.104a8.698 8.698 0 0 0-3.432-3.476c-1.466-.851-3.11-1.276-4.928-1.276s-3.461.425-4.928 1.276c-1.466.821-2.625 1.98-3.476 3.476-.821 1.496-1.232 3.197-1.232 5.104 0 1.906.41 3.608 1.232 5.104a9.315 9.315 0 0 0 3.476 3.52c1.467.821 3.11 1.232 4.928 1.232Zm35.541-25.256c2.728 0 5.09.454 7.084 1.364 2.024.909 3.579 2.2 4.664 3.872 1.086 1.672 1.628 3.652 1.628 5.94 0 2.258-.542 4.238-1.628 5.94-1.085 1.672-2.64 2.962-4.664 3.872-1.994.88-4.356 1.32-7.084 1.32h-6.204v8.492h-7.128v-30.8h13.332Zm-.396 16.5c2.142 0 3.77-.455 4.884-1.364 1.115-.939 1.672-2.259 1.672-3.96 0-1.731-.557-3.051-1.672-3.96-1.114-.939-2.742-1.408-4.884-1.408h-5.808v10.692h5.808Zm32.416 14.828c-4.4 0-7.832-1.218-10.296-3.652-2.434-2.435-3.652-5.911-3.652-10.428V26.112h7.128v16.984c0 5.514 2.288 8.272 6.864 8.272 2.23 0 3.931-.66 5.104-1.98 1.174-1.35 1.76-3.447 1.76-6.292V26.112h7.04V43.36c0 4.517-1.232 7.993-3.696 10.428-2.434 2.434-5.852 3.652-10.252 3.652Zm20.992-31.328h7.128v24.992h15.444v5.808h-22.572v-30.8Zm47.096 24.2h-14.3l-2.728 6.6h-7.304l13.728-30.8h7.04l13.772 30.8h-7.48l-2.728-6.6Zm-2.244-5.412-4.884-11.792L197.93 44.9h9.768Zm35.272 12.012-5.94-8.58h-6.556v8.58h-7.128v-30.8h13.332c2.728 0 5.089.454 7.084 1.364 2.024.909 3.579 2.2 4.664 3.872 1.085 1.672 1.628 3.652 1.628 5.94 0 2.288-.557 4.268-1.672 5.94-1.085 1.642-2.64 2.904-4.664 3.784l6.908 9.9h-7.656Zm-.132-19.624c0-1.731-.557-3.051-1.672-3.96-1.115-.939-2.743-1.408-4.884-1.408h-5.808v10.736h5.808c2.141 0 3.769-.47 4.884-1.408 1.115-.939 1.672-2.259 1.672-3.96Zm40.064 20.152c-3.138 0-5.984-.675-8.536-2.024-2.522-1.379-4.517-3.271-5.984-5.676-1.437-2.435-2.156-5.178-2.156-8.228 0-3.051.719-5.779 2.156-8.184 1.467-2.435 3.462-4.327 5.984-5.676 2.552-1.379 5.412-2.068 8.58-2.068 2.67 0 5.075.469 7.216 1.408 2.171.938 3.99 2.288 5.456 4.048l-4.576 4.224c-2.082-2.406-4.664-3.608-7.744-3.608-1.906 0-3.608.425-5.104 1.276a8.916 8.916 0 0 0-3.52 3.476c-.821 1.496-1.232 3.197-1.232 5.104 0 1.906.411 3.608 1.232 5.104a9.224 9.224 0 0 0 3.52 3.52c1.496.821 3.198 1.232 5.104 1.232 3.08 0 5.662-1.218 7.744-3.652l4.576 4.224c-1.466 1.789-3.285 3.153-5.456 4.092-2.17.938-4.59 1.408-7.26 1.408Zm45.778-31.328v30.8h-7.128V44.284H307.56v12.628h-7.128v-30.8h7.128v12.144h13.992V26.112h7.128Zm22.203 31.328c-3.197 0-6.087-.69-8.668-2.068-2.552-1.379-4.561-3.271-6.028-5.676-1.437-2.435-2.156-5.163-2.156-8.184 0-3.022.719-5.735 2.156-8.14 1.467-2.435 3.476-4.342 6.028-5.72 2.581-1.379 5.471-2.068 8.668-2.068 3.197 0 6.072.689 8.624 2.068 2.552 1.378 4.561 3.285 6.028 5.72 1.467 2.405 2.2 5.118 2.2 8.14 0 3.021-.733 5.749-2.2 8.184-1.467 2.405-3.476 4.297-6.028 5.676-2.552 1.378-5.427 2.068-8.624 2.068Zm0-6.072c1.819 0 3.461-.411 4.928-1.232a8.994 8.994 0 0 0 3.432-3.52c.851-1.496 1.276-3.198 1.276-5.104 0-1.907-.425-3.608-1.276-5.104a8.694 8.694 0 0 0-3.432-3.476c-1.467-.851-3.109-1.276-4.928-1.276s-3.461.425-4.928 1.276c-1.467.821-2.625 1.98-3.476 3.476-.821 1.496-1.232 3.197-1.232 5.104 0 1.906.411 3.608 1.232 5.104a9.315 9.315 0 0 0 3.476 3.52c1.467.821 3.109 1.232 4.928 1.232Zm22.209-25.256h7.128v30.8h-7.128v-30.8ZM402.27 57.44c-3.139 0-5.984-.675-8.536-2.024-2.523-1.379-4.518-3.271-5.984-5.676-1.438-2.435-2.156-5.178-2.156-8.228 0-3.051.718-5.779 2.156-8.184 1.466-2.435 3.461-4.327 5.984-5.676 2.552-1.379 5.412-2.068 8.58-2.068 2.669 0 5.074.469 7.216 1.408 2.17.938 3.989 2.288 5.456 4.048l-4.576 4.224c-2.083-2.406-4.664-3.608-7.744-3.608-1.907 0-3.608.425-5.104 1.276a8.91 8.91 0 0 0-3.52 3.476c-.822 1.496-1.232 3.197-1.232 5.104 0 1.906.41 3.608 1.232 5.104a9.217 9.217 0 0 0 3.52 3.52c1.496.821 3.197 1.232 5.104 1.232 3.08 0 5.661-1.218 7.744-3.652l4.576 4.224c-1.467 1.789-3.286 3.153-5.456 4.092-2.171.938-4.591 1.408-7.26 1.408Zm41.377-6.248v5.72h-23.848v-30.8h23.276v5.72h-16.192v6.688h14.3v5.544h-14.3v7.128h16.764Z" fill="#BDBDBD"/></svg>
